svg/airplane_takeoff.svg

<svg xmlns="http://www.w3.org/2000/svg" viewBox="0 0 24 24"><path d="M2.5 19h19v2h-19zm19.57-9.36c-.21-.8-1.04-1.28-1.84-1.06L14.92 10 8 3.57l-1.91.51 4.14 7.17-4.97 1.33-1.97-1.54-1.45.39 1.82 3.16.77 1.33 1.6-.42 5.31-1.43 4.35-1.16L21 11.5c.81-.24 1.28-1.06 1.07-1.86"/></svg>

<?xml version="1.0" encoding="UTF-8"?><!DOCTYPE svg PUBLIC "-//W3C//DTD SVG 1.1//EN" "http://www.w3.org/Graphics/SVG/1.1/DTD/svg11.dtd"><svg xmlns="http://www.w3.org/2000/svg" xmlns:xlink="http://www.w3.org/1999/xlink" version="1.1" id="mdi-airplane-takeoff" width="24" height="24" viewBox="0 0 24 24"><path d="M2.5,19H21.5V21H2.5V19M22.07,9.64C21.86,8.84 21.03,8.36 20.23,8.58L14.92,10L8,3.57L6.09,4.08L10.23,11.25L5.26,12.58L3.29,11.04L1.84,11.43L3.66,14.59L4.43,15.92L6.03,15.5L11.34,14.07L15.69,12.91L21,11.5C21.81,11.26 22.28,10.44 22.07,9.64Z" /></svg>
